!!!ONB: MCCC : IJH0422_01 : Extracted Monophonic Melody
!!!COM: Haydn, Joseph
!!!OPR: String Quartet in C major
!!!OMV: 1
!!!SCT: Hob.III:72 ; Op.74 No.1
!!!ODT: 1793///
**kern
*thru
*k[]
*C:
*clefF
*M4/4
1b
=1
4cc
2.r
=2
2cc
2dd
=3
2b
4cc
4cc#
=4
2dd
4ee-
4ee
=5
2ff
4ee
8r
8gg
=6
8ccc
16eee
16ddd
16ccc
16bb
16aa
16gg
16ff
16ee
16dd
16cc
16b
16a
16g
16f
=7
2e
4d
4a
=8
2c
8B
8c
8d
8e
=9
2f
4e
4r
=10
2cc
2dd
=11
2b
4cc
4ee
=12
2ff
4ff#
4gg
=13
4aa
8.aa
16bb
4.ccc
8ccc
=14
16ccc
16ee
16ff
16ff#
16gg
16b
16cc
16dd
16ee
16e
16f
16f#
16g
16B
16c
16d
=15
2e
4f
4a
=16
1d
=17
8c
8gg
8ff#
8aa
8gg
8ee
8ff
8dd
=18
2.cc
8b
8dd
=19
1ff
=20
8r
8ddd
8ccc#
8eee
8ddd
8bb
8ccc
8aa
=21
1gg[
=22
1gg]
=23
8r
8eee
8ddd
8fff
8eee
8ccc
8bb
8ddd
=24
8ccc
8aa
8gg#
8bb
8aa
8gg
8ff#
8aa
=25
8gg
8ff#
8ee
8dd
8cc#
8gg
8ee
8cc#
=26
8dd
8dd
8ee
8cc#
8dd
8dd
8ee
8cc#
=27
8dd
8dd
8ee
8cc#
8dd
8dd
8ee
8cc#
=28
8dd
8cc
8b
8dd
4cc
4r
=29
1r
=30
2gg
2aa
=31
4.ff#
16ee
16ff#
4gg
4gg#
=32
2aa
4bb-
4bb
=33
2.ccc
4ccc#
=34
16ddd
16bb
16gg
16dd
16b
16dd
16g
16dd
16a
16dd
16b
16dd
16cc
16dd
16a
16dd
=35
16ddd
16bb
16gg
16dd
16b
16dd
16g
16dd
16a
16dd
16b
16dd
16cc
16dd
16a
16dd
=36
16b
16G
16B
16d
16g
16b
16dd
16b
16cc
16A
16c
16f#
16a
16cc
16ee
16cc
=37
16b
16f#
16g
16b
16dd
16ff
16aa
16ff
16ee
16cc
16ee
16gg
16ccc
16gg
16eee
16ccc
=38
4ggg[
16ggg]
16fff#
16ggg
16fff#
8ggg
8eee
8ddd
8ccc
=39
16bb
16ddd
16ggg
16ddd
16ggg
16ddd
16bb
16gg
2aa
=40
4gg
2.r
=41
1r
=42
8r
8ee-
8ee-
8ee-
8ee-
8dd
8ff
8ff
=43
8ff
8ee
16dd
16cc
16b
16a
4g
4a
=44
16b
16cc
16a
16b
8g
8a
16b
16cc
16a
16b
8g
8dd
=45
8cc
8b
8a
8g
8f#
8e
8d
8a
=46
16b
16cc
16a
16b
8g
8a
16b
16cc
16a
16b
8g
8b
=47
8cc
8ee
8gg
8ccc
4eee
4r
=48
4ddd[
16ddd]
16ggg
16fff#
16eee
4ddd[
16ddd]
16ggg
16fff#
16eee
=49
16ddd
16ggg
16fff#
16eee
16ddd
16ggg
16fff#
16eee
8ddd
8bbb
8bbb
8bbb
=50
1aa
=51
4gg
4r
4ff#
4r
=52
16g
16b
16dd
16ff#
16gg
16bb
16ddd
16bb
4ccc
4ff#
=53
4gg
4bb
4g
4r
=54
2g
2a-
=55
2f#
2g
=56
2e-
2f
=57
2d
4e-
4e
=58
2f
4g-
4g
=59
2.a-
4a
=60
2b-
4cc
4dd
=61
4.ee-
8b-
8cc-
8cc
8dd-
8dd
=62
8.ee-
16gg
8bb-
8b-
8cc-
8cc
8dd-
8dd
=63
2ee-
2ee
=64
4ff
2.r
=65
8r
8dd-
8dd-
8dd-
8dd-
8cc
8ee-
8ee-
=66
8ee-
8dd
8gg
8gg
8gg
8ff#
8bb-
8bb-
=67
8bb-
8aa
8ccc#
8ccc#
8ccc#
8ddd
8ccc#
8ccc#
=68
8ccc#
8ddd
2.r
=69
1r
=70
1r
=71
8r
8ff
8ff
8ff
8ff
8ee
8aa
8aa
=72
8aa
8gg#
8ccc
8ccc
8ccc
8bb
8ddd#
8ddd#
=73
8ddd#
8eee
8ddd#
8ddd#
8ddd#
8eee
8ddd
8ddd
=74
16ccc
16eee
16ccc
16aa
16ee
16cc
16a
16cc
16b
16ee
16cc
16ee
16dd
16ee
16b
16ee
=75
16cc
16eee
16ccc
16aa
16ee
16cc
16a
16cc
16b
16ee
16cc
16ee
16dd
16ee
16b
16ee
=76
16cc
16A
16c
16e
16a
16cc
16b
16a
16g#
16d
16e
16g#
16b
16dd
16cc
16b
=77
16cc
16a
16ee
16a
16cc
16a
16ee
16a
16cc#
16a
16ee
16a
16cc#
16a
16ee
16a
=78
16dd
16d
16ff
16d
16dd
16d
16ff
16d
16ee
16a
16gg
16a
16ee
16a
16gg
16a
=79
16ff
16dd
16fff
16dd
16fff
16dd
16fff
16dd
8fff
16B-
16d
16B-
16d
16A
16d
=80
16G#
16d
16A
16d
16B-
16d
16A
16d
16G#
16f
16e
16d
16b
16f
16e
16d
=81
16c
16e
16g#
16a
16g#
16a
16g#
16a
16g
16f
16e
16d
16ee
16dd
16cc
16b
=82
16cc
16ee
16aa
16ee
16aa
16ee
16cc
16a
2b
=83
2a
2b
=84
2g#
4a
4r
=85
2ee
4ff
4r
=86
2aa
4bb-
4bb
=87
4ccc
8bb-
8bb-
8bb-
8aa
8aa-
8aa-
=88
8aa-
8gg
8ff#
8ff#
8ff#
8gg
8ff
8ff
=89
16ff
16ee
16dd
16cc
16b
16a
16g
16f
8e
16ccc
16bb
16aa
16gg
16ff
16ee
=90
16dd
16cc
16b
16a
16g
16f#
16a
16c
16B
16c
16B
16A
16B
16G
16B
16c
=91
16d
16e
16d
16c#
16d
16B
16d
16e
16f
16g
16f
16e
16f
16d
16b
16cc
=92
16dd
16ee
16dd
16cc#
16dd
16b
16dd
16ee
16ff
16ee
16dd
16cc#
16dd
16cc#
16dd
16ee
=93
16ff
16ee
16dd
16cc#
16dd
16cc#
16dd
16ee
16ff
16ee
16dd
16cc#
16dd
16ee
16ff
16gg
=94
8aa
8gg#
8bb
8aa
8gg
8ff#
8aa
8gg
=95
8ff
8ee
8gg
8ff
8ee
8dd
8ff
8b
=96
2cc
2dd
=97
2b
4cc
4cc#
=98
2dd
4ee-
4ee
=99
2ff
4ee
8r
8gg
=100
8ccc
16eee
16ddd
16ccc
16bb
16aa
16gg
16ff
16ee
16dd
16cc
16b
16a
16g
16f
=101
2e
4d
4a
=102
2c
8B
8c
8d
8e
=103
2f
4e
4r
=104
2cc
2dd
=105
4.b
16a
16b
4cc
4cc#
=106
2dd
4ee-
8.ee
32dd
32ee
=107
2ff
8ee
8gg
8ccc
8bb
=108
8aa
8a
8aa
8aa
16aa
16dd
16cc#
16dd
16ee-
16ee
16ff
16ff#
=109
8gg
4gg
8b-
8a
4aa
8cc
=110
8b
8gg
8ff#
8aa
8gg
8dd
8gg
8ee
=111
8ff
8ccc
8bb
8eee
8ddd
8bb
8gg
8ff
=112
8ee
8gg
8ff#
8aa
8gg
8ee
8gg
8b
=113
8cc
8ccc
8bb
8ddd
8ccc
8gg
8eee
8ddd
=114
8ccc
8ff#
8aa
8cc
8ee
8a
8cc
8f#
=115
8g
8gg
8ff#
8aa
8gg
8gg
8ff#
8aa
=116
8gg
8ff
8ee
8gg
4ff
4r
=117
1r
=118
1r
=119
8r
8aa-
8aa-
8aa-
8aa-
8gg
8bb-
8bb-
=120
8bb-
8aa
16gg
16ff
16ee
16dd
4cc
4dd
=121
16gg
16ee
16cc
16g
16e
16g
16c
16g
16d
16g
16e
16g
16f
16g
16d
16g
=122
16gg
16ee
16cc
16g
16e
16g
16c
16g
16d
16g
16e
16g
16f
16g
16d
16g
=123
16e
16c
16e
16g
16cc
16ee
16dd
16cc
16b
16d
16f
16g
16b
16dd
16ff
16dd
=124
16cc
16e
16g
16b-
16cc
16ee
16gg
16bb-
16aa
16a
16ff
16aa
16ccc
16aa
16gg
16ff
=125
16ee
16gg
16ccc
16gg
16ccc
16gg
16ee
16cc
2dd
=126
4cc
2.r
=127
1r
=128
2ff
2gg
=129
2ee
2ff
=130
2ee-
2g
=131
2aa-
2bb-
=132
2gg
8aa-
16A-
16G
16A-
16B-
16c
16d-
=133
8e-
16B-
16A
16B-
16c
16d-
16e-
8f
16c
16B
16c
16d
16e-
16f
=134
8g
16g
16f#
16g
16a
16b
16g
8cc
16cc
16b
16cc
16dd
16ee-
16ff
=135
8gg
16gg
16ff#
16gg
16aa
16bb
16gg
8ccc
16ccc
16bb
16ccc
16ddd
16eee-
16ccc
=136
2.ggg
4fff
=137
2eee
4.fff
8eee
=138
2ddd
4.eee
8ddd
=139
1ccc
=140
8bb
8bb
8aa
8aa
8gg
8gg
8ff
8ff
=141
16ee
16ff
16dd
16ee
8cc
8dd
16ee
16ff
16dd
16ee
8cc
8gg
=142
8ff
8ee
8dd
8cc
8b
8a
8g
8dd
=143
16ee
16ff
16dd
16ee
8cc
8dd
16ee
16ff
16dd
16ee
8cc
8ee
=144
8ff
8cc
8ff
8aa
4ccc
8r
8aa
=145
4gg[
16gg]
16ccc
16bb
16aa
4gg[
16gg]
16ccc
16bb
16aa
=146
16gg
16ccc
16bb
16aa
16gg
16ccc
16bb
16aa
8gg
8eee
8eee
8eee
=147
1dd
=148
2c
2d
=149
4.B
16A
16B
4c
4c#
=150
4.d
8e-
8e
8f
8f#
8g
=151
8g#
8a
8b
8cc
4dd
4b
=152
16c
16e
16g
16b
16cc
16ee
16gg
16ee
4ff
4r
=153
4ee
4r
4bb
4r
=154
4ccc
4ee
4ee
4r
==
*-
